!!!COM: Gaspar van Weerbeke
!!!CDT: ~1450-~1517
!!!OPR: Missa O venus bant
!!!OTL: Sanctus
!!!OMV: 4
!!!AGN: Mass
!!!SCT: Gas0102d
!!!SCA: Gas0102d
!!!voices: 4
**kern	**text	**kern	**text	**kern	**text	**kern	**text
*part4	*part4	*part3	*part3	*part2	*part2	*part1	*part1
*staff4	*staff4	*staff3	*staff3	*staff2	*staff2	*staff1	*staff1
*I"Bassus	*	*I"Tenor	*	*I"Altus	*	*I"Superius	*
*I'B	*	*I'T	*	*I'A	*	*I'S	*
*clefF4	*	*clefGv2	*	*clefGv2	*	*clefG2	*
*M3/2	*	*M3/2	*	*M3/2	*	*M3/2	*
*met(O|)	*	*met(C.)	*	*met(O|)	*	*met(O|)	*
=1	=1	=1	=1	=1	=1	=1	=1
!!LO:TX:a:t=C. (T)
!!LO:TX:a:t=O| (S, A, B)
1.r	.	1.r	.	1G	San-	1g	San-
.	.	.	.	2A	.	2f	.
=2	=2	=2	=2	=2	=2	=2	=2
1.r	.	1.r	.	4.G	.	4e	.
.	.	.	.	.	.	2d	.
.	.	.	.	8A	.	.	.
.	.	.	.	4B	.	.	.
.	.	.	.	4c	.	2g	.
.	.	.	.	2A	.	.	.
.	.	.	.	.	.	4f#i	.
=3	=3	=3	=3	=3	=3	=3	=3
1.r	.	1.r	.	4G	-ctus,	4.g	.
.	.	.	.	2g	san-	.	.
.	.	.	.	.	.	8a	.
.	.	.	.	.	.	4b	.
.	.	.	.	4e	.	4cc	.
.	.	.	.	2f	.	2a	.
=4	=4	=4	=4	=4	=4	=4	=4
1.r	.	1.r	.	4e	.	2g	-ctus,
.	.	.	.	2g	-ctus,	.	.
.	.	.	.	.	.	4r	.
*	*	*	*	*	*edit	*	*
.	.	.	.	2c	san-	2g	san-
*	*	*	*	*	*	*	*edit
.	.	.	.	[4G	-ctus,	[4g	-ctus,
!!LO:LB:g=original
=5	=5	=5	=5	=5	=5	=5	=5
1.r	.	1.r	.	4G]	.	2g]	.
.	.	.	.	4.c	.	.	.
.	.	.	.	.	.	2a	san-
.	.	.	.	8BL	.	.	.
.	.	.	.	8A	.	.	.
.	.	.	.	8GJ	.	.	.
.	.	.	.	2F	.	4.a	-ctus,
.	.	.	.	.	.	8b	.
=6	=6	=6	=6	=6	=6	=6	=6
1.r	.	1.r	.	4r	.	8ccL	.
.	.	.	.	.	.	8bJ	.
*	*	*	*	*	*Xedit	*	*
.	.	.	.	4.A	san-	4.cc	.
.	.	.	.	8B	.	8bL	.
.	.	.	.	4c	.	8a	.
.	.	.	.	.	.	8gJ	.
.	.	.	.	2d	.	2f	.
=7	=7	=7	=7	=7	=7	=7	=7
1.r	.	1.r	.	2.f	.	4r	.
.	.	.	.	.	.	4.a	san-
.	.	.	.	.	.	8b	.
.	.	.	.	4e	.	4cc	.
.	.	.	.	4d	.	[2dd	.
.	.	.	.	[4f	.	.	.
=8	=8	=8	=8	=8	=8	=8	=8
1.r	.	1.r	.	4f]	.	4dd]	.
.	.	.	.	4e	.	4cc	.
.	.	.	.	2d	.	4b	.
.	.	.	.	.	.	2.dd	.
.	.	.	.	2f	.	.	.
!!LO:LB:g=original
=9	=9	=9	=9	=9	=9	=9	=9
1.r	.	1.r	.	4e	.	4cc	.
.	.	.	.	2d	.	4b	.
.	.	.	.	.	.	4dd	.
.	.	.	.	4g	.	4b	.
.	.	.	.	4f	.	4a	.
.	.	.	.	[4a	.	[4cc	.
=10	=10	=10	=10	=10	=10	=10	=10
1.r	.	1.r	.	4a]	.	4cc]	.
.	.	.	.	2g	.	4b	.
.	.	.	.	.	.	2a	-ctus,
.	.	.	.	4f#i	.	.	.
.	.	.	.	2g	-ctus,	4r	.
.	.	.	.	.	.	[4g	san-
=11	=11	=11	=11	=11	=11	=11	=11
1.r	.	1.r	.	4r	.	8g]L	.
.	.	.	.	.	.	8a	.
*	*	*	*	*col	*edit	*	*
.	.	.	.	4.g	san-	8b	.
.	.	.	.	.	.	8ccJ	.
.	.	.	.	.	.	4.dd	.
.	.	.	.	8f	.	.	.
*	*	*	*	*Xcol	*	*	*
.	.	.	.	4d	.	.	.
.	.	.	.	.	.	8cc	.
.	.	.	.	4c	.	4a	.
.	.	.	.	[4d	.	[4b	.
=12	=12	=12	=12	=12	=12	=12	=12
1.r	.	1.r	.	4d]	.	4b]	.
.	.	.	.	8cL	.	8aL	.
.	.	.	.	8BJ	.	8gJ	.
*	*	*	*	*	*	*	*Xedit
.	.	.	.	2A	-ctus,	2f#i	-ctus,
.	.	.	.	4.G	san-	4.g	san-
.	.	.	.	8A	.	8fni	.
!!LO:LB:g=original
=13	=13	=13	=13	=13	=13	=13	=13
1.r	.	1.r	.	8BL	.	4d	.
.	.	.	.	8cJ	.	.	.
.	.	.	.	4.d	.	4.f	.
.	.	.	.	8c	.	8e	.
.	.	.	.	4.A	.	4c	.
.	.	.	.	.	.	4.e	.
.	.	.	.	8B	.	.	.
.	.	.	.	4c	.	.	.
.	.	.	.	.	.	8d	.
=14	=14	=14	=14	=14	=14	=14	=14
1.r	.	1.r	.	4d	.	4B	.
.	.	.	.	4.B	.	4.d	.
.	.	.	.	8G	.	8B	.
.	.	.	.	4.A	.	4c	.
.	.	.	.	.	.	2A	.
.	.	.	.	8E	.	.	.
.	.	.	.	4F#i	.	.	.
=15	=15	=15	=15	=15	=15	=15	=15
*	*	*	*	*	*Xedit	*	*
1.GG	Do-	[1.G	Do-	2G	-ctus	2G	-ctus
.	.	.	.	2g	Do-	2r	.
*	*	*	*	*col	*	*	*
.	.	.	.	4.g	-mi-	2r	.
.	.	.	.	8f	.	.	.
*	*	*	*	*Xcol	*	*	*
=16	=16	=16	=16	=16	=16	=16	=16
1C	-mi-	1.G]	.	2.e	.	2g	Do-
.	.	.	.	.	.	4.g	-mi-
.	.	.	.	4c	.	.	.
.	.	.	.	.	.	8a	.
2BB	.	.	.	2d	.	2b	.
!!LO:PB:g=original
=17	=17	=17	=17	=17	=17	=17	=17
2AA	-nus	1.A	-mi-	2c	-nus	2cc	-nus
*	*edit	*	*	*	*edit	*	*edit
4.D	De-	.	.	4.d	De-	2.a	De-
8E	.	.	.	8c	.	.	.
2F	.	.	.	4.A	.	.	.
.	.	.	.	.	.	8gL	.
.	.	.	.	8B	.	8fJ	.
=18	=18	=18	=18	=18	=18	=18	=18
2.C	.	1G	.	4.c	.	4.e	.
.	.	.	.	8B	.	8f	.
.	.	.	.	4G	.	2g	.
4BB	.	.	.	4D	.	.	.
2AA	.	2F	.	4E	.	4a	.
.	.	.	.	4C	.	4cc	.
=19	=19	=19	=19	=19	=19	=19	=19
2GG	-us,	2G	-nus	2D	-us,	4b	.
.	.	.	.	.	.	8aL	.
.	.	.	.	.	.	8gJ	.
*	*	*	*edit	*	*	*	*
2D	Do-	1A	De-	4r	.	4f#i	.
.	.	.	.	4.d	Do-	4.a	.
2D	-mi-	.	.	.	.	.	.
.	.	.	.	8c	.	8e	.
.	.	.	.	4A	.	4f#i	.
=20	=20	=20	=20	=20	=20	=20	=20
2GG	-nus	1.G	-us,	4.B	-mi-	1g	-us,
.	.	.	.	8c	.	.	.
*	*Xedit	*	*	*	*	*	*
4.GG	De-	.	.	2d	-nus	.	.
8AA	.	.	.	.	.	.	.
4BB	.	.	.	4r	.	2r	.
[4C	.	.	.	[4G	De-	.	.
!!LO:LB:g=original
=21	=21	=21	=21	=21	=21	=21	=21
4C]	.	1.r	.	8G]L	.	1.r	.
.	.	.	.	8AJ	.	.	.
4D	.	.	.	4B	.	.	.
2E	.	.	.	2c	.	.	.
4D	.	.	.	4d	.	.	.
*	*edit	*	*	*	*	*	*
4C	-us,	.	.	[4e	.	.	.
=22	=22	=22	=22	=22	=22	=22	=22
2.G	De-	1.r	.	4e]	.	1.r	.
.	.	.	.	4d	.	.	.
.	.	.	.	8eL	.	.	.
.	.	.	.	8dJ	.	.	.
4E	.	.	.	2c	.	.	.
2D	.	.	.	.	.	.	.
.	.	.	.	4B	.	.	.
=23	=23	=23	=23	=23	=23	=23	=23
*	*Xedit	*	*	*	*	*	*
2C	-us,	1.G	Do-	2c	-us,	2.e	Do-
*	*edit	*	*	*	*	*	*
2C	Do-	.	.	4r	.	.	.
.	.	.	.	4c	Do-	4.g	.
4GG	.	.	.	4B	.	.	.
.	.	.	.	.	.	8f	.
[4C	.	.	.	[4G	.	[4e	.
=24	=24	=24	=24	=24	=24	=24	=24
4C]	.	2G	-mi-	8G]L	.	4e]	.
.	.	.	.	8AJ	.	.	.
4BB	.	.	.	4B	.	2d	.
2C	-mi-	4G	-nus	2E	-mi-	.	.
.	.	4A	.	.	.	4c	.
2BB	-nus	2B	.	2D	-nus	2d	-mi-
!!LO:LB:g=original
=25	=25	=25	=25	=25	=25	=25	=25
*	*	*	*Xedit	*	*Xedit	*	*
1AA	De-	1c	De-	4.C	De-	2e	-nus
.	.	.	.	8D	.	.	.
.	.	.	.	4E	.	4r	.
*	*	*	*	*	*	*	*Xedit
.	.	.	.	4F	.	4a	De-
2GG	.	2B	.	2G	.	2b	.
=26	=26	=26	=26	=26	=26	=26	=26
4.AA	.	1A	.	4C	.	4.cc	.
.	.	.	.	4F	.	.	.
8BB	.	.	.	.	.	8b	.
4C	.	.	.	4E	.	8aL	.
.	.	.	.	.	.	8gJ	.
4D	.	.	.	4F	.	4f	.
2BB-i	.	2G	.	2D	.	8gL	.
.	.	.	.	.	.	8a	.
.	.	.	.	.	.	8b	.
.	.	.	.	.	.	16aL	.
.	.	.	.	.	.	16bJJ	.
=27	=27	=27	=27	=27	=27	=27	=27
*	*	*	*	*	*edit	*	*edit
2AA	-us,	1A	-us	4E	-us,	4.cc	-us,
.	.	.	.	4.A	De-	.	.
.	.	.	.	.	.	8b	.
8AL	De-	.	.	.	.	8aL	.
8G	.	.	.	8B	.	8gJ	.
8F	.	.	.	4c	.	2a	De-
8EJ	.	.	.	.	.	.	.
4D	.	2r	.	2d	.	.	.
[4G	.	.	.	.	.	[4b	.
=28	=28	=28	=28	=28	=28	=28	=28
4G]	.	1.r	.	4B	.	8b]L	.
.	.	.	.	.	.	8aJ	.
4C	.	.	.	4c	.	2g	.
2D	.	.	.	2A	.	.	.
.	.	.	.	.	.	4f#i	.
*	*Xedit	*	*	*	*Xedit	*	*Xedit
4GG	-us	.	.	2G	-us	2g	-us
*	*edit	*	*	*	*	*	*
[4C	Sa-	.	.	.	.	.	.
!!LO:LB:g=original
=29	=29	=29	=29	=29	=29	=29	=29
8C]L	.	1.r	.	4.G	Sa-	4r	.
8D	.	.	.	.	.	.	.
8E	.	.	.	.	.	2g	Sa-
8FJ	.	.	.	8A	.	.	.
4G	.	.	.	4B	.	.	.
4E	.	.	.	2c	.	4g	.
2D	.	.	.	.	.	4f	.
.	.	.	.	4B	.	4d	.
=30	=30	=30	=30	=30	=30	=30	=30
*	*	*col	*	*	*edit	*	*edit
2.C	-ba-	[1.c	Sa-	4.c	-ba-	4.e	-ba-
.	.	.	.	8d	.	8f	.
.	.	.	.	4e	.	4g	.
4F	.	.	.	2f	.	4a	.
2C	-oth,	.	.	.	.	4.g	.
.	.	.	.	4e	.	.	.
.	.	.	.	.	.	8f	.
=31	=31	=31	=31	=31	=31	=31	=31
4F	sa-	2c]	.	2f	-oth,	2a	-oth,
*	*	*Xcol	*	*	*	*	*
4A	.	.	.	.	.	.	.
2G	.	2r	.	4.d	sa-	2b	sa-
.	.	.	.	8e	.	.	.
4F	.	2r	.	4f	.	4a	.
4C	.	.	.	[4g	.	4g	.
=32	=32	=32	=32	=32	=32	=32	=32
4E	-ba-	[1.c	-ba-	4g]	.	4cc	.
4F	.	.	.	4f	.	4dd	.
*	*	*	*	*	*	*col	*
2C	-oth,	.	.	2g	.	4.ee	.
.	.	.	.	.	.	8dd	.
*	*	*	*	*	*	*Xcol	*
4r	.	.	.	4.e	.	4cc	.
4C	sa-	.	.	.	.	8bL	.
.	.	.	.	8f	.	8aJ	.
!!LO:PB:g=original
=33	=33	=33	=33	=33	=33	=33	=33
4E	-ba-	1c]	.	4g	.	4g	.
4F	.	.	.	4f	.	4a	.
2C	-oth,	.	.	4e	.	4g	.
.	.	.	.	4c	.	2cc	-ba-
*	*	*	*edit	*	*	*	*
4r	.	2G	-oth,	2d	-ba-	.	.
4G	sa-	.	.	.	.	4b	.
=34	=34	=34	=34	=34	=34	=34	=34
2.A	.	1.r	.	2c	-oth,	1cc	-oth,
.	.	.	.	4r	.	.	.
*	*	*	*	*col	*	*	*
4F	-ba-	.	.	4.f	sa-	.	.
2F	-oth,	.	.	.	.	2r	.
.	.	.	.	8e	.	.	.
*	*	*	*	*Xcol	*	*	*
.	.	.	.	4d	.	.	.
=35	=35	=35	=35	=35	=35	=35	=35
4E	sa-	1.r	.	4c	.	2r	.
4D	.	.	.	4f	.	.	.
4C	.	.	.	4e	.	4.cc	sa-
2F	.	.	.	4.c	.	.	.
.	.	.	.	.	.	8b	.
.	.	.	.	.	.	4a	.
.	.	.	.	8d	.	.	.
4E	.	.	.	[4e	.	4g	.
=36	=36	=36	=36	=36	=36	=36	=36
4C	.	1.r	.	4e]	.	4cc	.
4G	.	.	.	4d	.	2b	.
4A	.	.	.	4c	.	.	.
*	*	*	*	*	*	*	*Xedit
4F	.	.	.	4A	.	2a	-ba-
2G	.	.	.	2B-i	.	.	.
.	.	.	.	.	.	4g	.
!!LO:LB:g=original
=37	=37	=37	=37	=37	=37	=37	=37
*	*	*col	*	*	*Xedit	*	*edit
2D	-ba-	[1.d	sa-	2A	-ba-	2a	-oth,
*	*	*	*	*	*edit	*	*
2D	-oth,	.	.	2A	-oth,	4r	.
.	.	.	.	.	.	4a	sa-
4r	.	.	.	4.G	sa-	4b	.
[4GG	sa-	.	.	.	.	[4dd	-ba-
.	.	.	.	8A	.	.	.
=38	=38	=38	=38	=38	=38	=38	=38
8GG]L	.	2d]	.	8BL	.	2dd]	.
8AAJ	.	.	.	8cJ	.	.	.
4BB	.	.	.	4d	.	.	.
4.C	-ba-	1c	.	2.e	-ba-	4g	-oth,
*	*	*Xcol	*	*	*	*	*
.	.	.	.	.	.	4.cc	sa-
8D	.	.	.	.	.	.	.
4E	.	.	.	.	.	.	.
.	.	.	.	.	.	8b	.
4F	.	.	.	4c	-oth,	4a	.
=39	=39	=39	=39	=39	=39	=39	=39
8EL	.	2c	-ba-	4r	.	8gL	.
8DJ	.	.	.	.	.	8fJ	.
4C	-oth,	.	.	4e	sa-	4e	.
*	*Xedit	*	*	*	*	*	*
4G	sa-	4B	.	4d	.	4d	.
4E	.	4G	.	4c	.	2g	-ba-
4D	.	2A	.	2d	-ba-	.	.
4F	-ba-	.	.	.	.	4f#i	.
=40	=40	=40	=40	=40	=40	=40	=40
*	*	*	*Xedit	*	*	*	*Xedit
4E	.	1.Gl	-oth.	2e	.	1.gl	-oth.
8DL	.	.	.	.	.	.	.
8CJ	.	.	.	.	.	.	.
4BB	.	.	.	4d	.	.	.
4C	.	.	.	4e	.	.	.
*	*	*	*	*	*Xedit	*	*
2GGl	-oth.	.	.	2dl	-oth.	.	.
!!LO:LB:g=original
=41||	=41||	=41||	=41||	=41||	=41||	=41||	=41||
*M2/2	*	*M2/2	*	*M2/2	*	*M2/2	*
*met(C|)	*	*met(C|)	*	*met(C|)	*	*met(C|)	*
1r	.	1r	.	1D	Ple-	1r	.
=42	=42	=42	=42	=42	=42	=42	=42
1r	.	1r	.	2E	.	2r	.
.	.	.	.	2F	.	[2d	Ple-
=43	=43	=43	=43	=43	=43	=43	=43
1r	.	1r	.	1G	.	2d]	.
.	.	.	.	.	.	2e	.
=44	=44	=44	=44	=44	=44	=44	=44
1r	.	1r	.	2A	.	2f	.
.	.	.	.	2B	.	[2g	.
=45	=45	=45	=45	=45	=45	=45	=45
1r	.	1r	.	2G	.	2g]	.
.	.	.	.	[2d	.	2a	.
=46	=46	=46	=46	=46	=46	=46	=46
1r	.	1r	.	4d]	.	2b	.
.	.	.	.	4c	.	.	.
.	.	.	.	4B	.	2g	.
.	.	.	.	4A	.	.	.
!!LO:LB:g=original
=47	=47	=47	=47	=47	=47	=47	=47
1r	.	1r	.	2G	-ni,	2.dd	.
.	.	.	.	2r	.	.	.
.	.	.	.	.	.	4cc	.
=48	=48	=48	=48	=48	=48	=48	=48
*	*	*	*	*	*edit	*	*
1r	.	1r	.	2d	ple-	4b	.
.	.	.	.	.	.	4a	.
.	.	.	.	4B	.	2g	-ni,
.	.	.	.	[4c	.	.	.
=49	=49	=49	=49	=49	=49	=49	=49
1r	.	1r	.	4c]	.	2r	.
.	.	.	.	8BL	.	.	.
.	.	.	.	8AJ	.	.	.
*	*	*	*	*	*	*	*edit
.	.	.	.	4.G	.	2dd	ple-
.	.	.	.	8F	.	.	.
=50	=50	=50	=50	=50	=50	=50	=50
1r	.	1r	.	4G	.	4b	.
.	.	.	.	2A	.	2cc	.
.	.	.	.	8GL	.	8bL	.
.	.	.	.	8FJ	.	8aJ	.
=51	=51	=51	=51	=51	=51	=51	=51
1r	.	1r	.	4E	-ni,	4.g	.
.	.	.	.	2e	ple-	.	.
.	.	.	.	.	.	8f	.
.	.	.	.	.	.	4g	.
.	.	.	.	[4f	.	[4a	.
=52	=52	=52	=52	=52	=52	=52	=52
1r	.	1r	.	4f]	.	4a]	.
.	.	.	.	2d	.	8gL	.
.	.	.	.	.	.	8fJ	.
.	.	.	.	.	.	2e	.
.	.	.	.	4c#i	.	.	.
!!LO:PB:g=original
=53	=53	=53	=53	=53	=53	=53	=53
1r	.	1r	.	4.d	-ni,	2d	-ni,
.	.	.	.	8c	.	.	.
*	*	*	*	*	*	*lig	*
.	.	.	.	2A	ple-	[2e	ple-
=54	=54	=54	=54	=54	=54	=54	=54
1r	.	1r	.	4G	.	4e]	.
.	.	.	.	2A	.	2f	.
*	*	*	*	*	*	*Xlig	*
.	.	.	.	4F	-ni	[4d	.
=55	=55	=55	=55	=55	=55	=55	=55
*	*	*	*	*	*Xedit	*	*
1r	.	1r	.	2E	sunt	4d]	.
.	.	.	.	.	.	4c#i	-ni
*	*	*	*	*	*edit	*	*Xedit
.	.	.	.	4.D	ce-	2d	sunt
.	.	.	.	8E	.	.	.
=56	=56	=56	=56	=56	=56	=56	=56
*	*	*	*	*	*	*	*edit
1r	.	1r	.	4F	.	4.d	ce-
.	.	.	.	4G	.	.	.
.	.	.	.	.	.	8e	.
.	.	.	.	4D	.	4f	.
.	.	.	.	4G	.	4g	.
=57	=57	=57	=57	=57	=57	=57	=57
1r	.	1r	.	4F	.	4d	.
.	.	.	.	4B	.	4g	.
.	.	.	.	4A	.	4f	.
.	.	.	.	[4d	.	4b	.
=58	=58	=58	=58	=58	=58	=58	=58
1r	.	1r	.	4d]	.	4a	.
.	.	.	.	2G	-li,	2dd	.
.	.	.	.	[4B	ce-	[4g	-li,
!!LO:LB:g=original
=59	=59	=59	=59	=59	=59	=59	=59
1r	.	1r	.	8B]L	.	4g]	.
.	.	.	.	8cJ	.	.	.
*	*	*	*	*lig	*	*	*
.	.	.	.	2d	.	4.b	ce-
.	.	.	.	.	.	8cc	.
.	.	.	.	[4G	.	[4dd	.
=60	=60	=60	=60	=60	=60	=60	=60
1r	.	1r	.	4G]	.	4dd]	.
*	*	*	*	*Xlig	*	*	*
.	.	.	.	4A	.	4cc	.
.	.	.	.	4B	.	4b	.
.	.	.	.	[4c	.	[4a	.
=61	=61	=61	=61	=61	=61	=61	=61
1r	.	1r	.	8c]L	.	8a]L	.
.	.	.	.	8B	.	8g	.
.	.	.	.	8A	.	8f#i	.
.	.	.	.	8GJ	.	8eJ	.
.	.	.	.	2A	.	2f#i	.
=62	=62	=62	=62	=62	=62	=62	=62
*	*edit	*	*	*	*	*	*
4GG	Ple-	1r	.	2G	-li	2g	-li
4.C	-ni	.	.	.	.	.	.
.	.	.	.	4r	.	2r	.
8C	sunt	.	.	.	.	.	.
*	*Xedit	*	*	*	*	*	*
4C	ce-	.	.	4G	ple-	.	.
=63	=63	=63	=63	=63	=63	=63	=63
4C	-li	1r	.	4.c	-ni	1r	.
2C	et	.	.	.	.	.	.
.	.	.	.	8c	sunt	.	.
*	*	*	*	*	*Xedit	*	*
.	.	.	.	4c	ce-	.	.
[4F	ter-	.	.	4c	-li	.	.
!!LO:LB:g=original
=64	=64	=64	=64	=64	=64	=64	=64
4F]	.	1r	.	2c	et	1r	.
4E	.	.	.	.	.	.	.
4D	.	.	.	4d	ter-	.	.
[4A	.	.	.	4c	.	.	.
=65	=65	=65	=65	=65	=65	=65	=65
4A]	.	1r	.	4f	.	1r	.
4G	.	.	.	4e	.	.	.
4F	.	.	.	4d	.	.	.
*	*	*	*	*col	*	*	*
[4D	.	.	.	[4f	.	.	.
=66	=66	=66	=66	=66	=66	=66	=66
4D]	.	1r	.	8f]L	.	1r	.
.	.	.	.	8eJ	.	.	.
*	*	*	*	*Xcol	*	*	*
4F	.	.	.	2d	.	.	.
2E	.	.	.	.	.	.	.
.	.	.	.	4c	.	.	.
=67	=67	=67	=67	=67	=67	=67	=67
4D	.	1r	.	4B	.	1r	.
4.E	.	.	.	2G	.	.	.
8D	.	.	.	.	.	.	.
[4G	.	.	.	4B	.	.	.
=68	=68	=68	=68	=68	=68	=68	=68
4G]	.	1r	.	2A	.	1r	.
4F	.	.	.	.	.	.	.
4E	.	.	.	2G	.	.	.
[4C	.	.	.	.	.	.	.
=69	=69	=69	=69	=69	=69	=69	=69
8C]L	.	1r	.	8AL	.	1r	.
8DJ	.	.	.	8GJ	.	.	.
4E	.	.	.	2c	.	.	.
2D	.	.	.	.	.	.	.
.	.	.	.	4B	.	.	.
!!LO:LB:g=original
=70	=70	=70	=70	=70	=70	=70	=70
*	*edit	*	*	*	*	*	*
4C	-ra,	1r	.	2c	-ra,	2g	et
4E	et	.	.	.	.	.	.
4F	ter-	.	.	4r	.	4a	.
*	*	*	*	*	*edit	*	*
4A	.	.	.	4c	et	[4cc	ter-
=71	=71	=71	=71	=71	=71	=71	=71
*	*	*	*	*col	*	*	*
2G	-ra,	1r	.	4.d	ter-	4cc]	.
.	.	.	.	.	.	4b	.
.	.	.	.	8c	.	.	.
*	*	*	*	*Xcol	*	*	*
4r	.	.	.	4A	.	4cc	.
*	*	*	*	*	*	*col	*
[4G	et	.	.	4B	.	[4dd	.
=72	=72	=72	=72	=72	=72	=72	=72
4G]	.	1r	.	4G	.	8dd]L	.
.	.	.	.	.	.	8ccJ	.
*	*	*	*	*	*	*Xcol	*
4F	.	.	.	4.d	.	4a	.
*col	*	*	*	*	*	*	*
4.G	ter-	.	.	.	.	4b	.
.	.	.	.	8cL	.	.	.
.	.	.	.	8B	.	4g	.
8A	.	.	.	8AJ	.	.	.
=73	=73	=73	=73	=73	=73	=73	=73
*	*	*	*	*	*	*col	*
4.B-X	.	1r	.	2G	-ra	4.dd	.
8A	.	.	.	.	.	8cc	.
*Xcol	*	*	*	*	*	*Xcol	*
4G	.	.	.	4r	.	8bL	.
.	.	.	.	.	.	8aJ	.
*	*	*	*	*	*Xedit	*	*
4E	.	.	.	[4g	glo-	4g	.
=74	=74	=74	=74	=74	=74	=74	=74
*	*Xedit	*	*	*	*	*	*
2D	-ra	1r	.	4g]	.	2a	.
.	.	.	.	4f	.	.	.
2r	.	.	.	4e	.	2g	-ra
.	.	.	.	[4g	-ri-	.	.
!!LO:LB:g=original
=75	=75	=75	=75	=75	=75	=75	=75
1r	.	1r	.	4g]	.	4r	.
.	.	.	.	2d	-a,	2dd	glo-
.	.	.	.	4r	.	4cc	.
=76	=76	=76	=76	=76	=76	=76	=76
*	*	*	*	*	*edit	*	*
1r	.	1r	.	2g	glo-	4b	.
.	.	.	.	.	.	2dd	-ri-
.	.	.	.	4f	.	.	.
.	.	.	.	4e	.	[4g	-a,
=77	=77	=77	=77	=77	=77	=77	=77
1r	.	1r	.	2g	-ri-	4g]	.
.	.	.	.	.	.	4r	.
*	*	*	*	*	*	*	*Xedit
.	.	.	.	2c	-a,	2cc	glo-
=78	=78	=78	=78	=78	=78	=78	=78
1r	.	1r	.	4r	.	4b	.
.	.	.	.	2f	glo-	4a	.
.	.	.	.	.	.	2cc	-ri-
.	.	.	.	4e	.	.	.
=79	=79	=79	=79	=79	=79	=79	=79
1r	.	1r	.	4.d	-ri-	2f	-a
.	.	.	.	8c	.	.	.
.	.	.	.	4B	-a	4g	.
*	*	*	*	*lig	*	*	*edit
.	.	.	.	[4A	tu-	[4a	tu-
!!LO:PB:g=original
=80	=80	=80	=80	=80	=80	=80	=80
*lig	*	*	*	*	*	*	*
2D	glo-	1r	.	4A]	.	4a]	.
.	.	.	.	2d	.	8gL	.
*	*	*	*	*Xlig	*	*	*
.	.	.	.	.	.	8fJ	.
2A	.	.	.	.	.	2e	.
*Xlig	*	*	*	*	*	*	*
.	.	.	.	4c#i	.	.	.
=81	=81	=81	=81	=81	=81	=81	=81
*col	*	*	*	*	*	*	*
4.B-i	.	1r	.	2d	-a,	2d	-a,
8A	.	.	.	.	.	.	.
*Xcol	*	*	*	*	*	*	*
4G	-ri-	.	.	4.d	glo-	2r	.
4F	.	.	.	.	.	.	.
.	.	.	.	8c	.	.	.
=82	=82	=82	=82	=82	=82	=82	=82
4.G	-a	1r	.	4B	.	1r	.
.	.	.	.	4A	.	.	.
8F	.	.	.	.	.	.	.
4E	.	.	.	4G	.	.	.
4D	.	.	.	[4A	-ri-	.	.
=83	=83	=83	=83	=83	=83	=83	=83
4C	.	1r	.	8A]L	.	1r	.
.	.	.	.	8GJ	.	.	.
*	*edit	*	*	*	*	*	*
4.D	tu-	.	.	4F	.	.	.
.	.	.	.	4E	-a	.	.
8C	.	.	.	.	.	.	.
4BB	.	.	.	4D	.	.	.
=84	=84	=84	=84	=84	=84	=84	=84
4AA	.	1r	.	4E	.	1r	.
4GG	.	.	.	2G	tu-	.	.
2AA	-a,	.	.	.	.	.	.
.	.	.	.	4F#i	.	.	.
!!LO:LB:g=original
=85	=85	=85	=85	=85	=85	=85	=85
8GGL	glo-	1r	.	2G	-a,	4.d	glo-
8AA	.	.	.	.	.	.	.
8BB	.	.	.	.	.	.	.
8CJ	.	.	.	.	.	8e	.
4D	-ri-	.	.	4r	.	8fL	.
.	.	.	.	.	.	8gJ	.
4BB	.	.	.	[4F	glo-	[4a	.
=86	=86	=86	=86	=86	=86	=86	=86
2AA	-a	1r	.	8F]L	.	8a]L	.
.	.	.	.	8GJ	.	8b	.
.	.	.	.	4A	.	8cc	.
.	.	.	.	.	.	16bL	.
.	.	.	.	.	.	16ccJJ	.
4GG	.	.	.	4B	-ri-	4dd	-ri-
*	*Xedit	*	*	*	*	*	*
4G	tu-	.	.	4G	.	4b	.
=87	=87	=87	=87	=87	=87	=87	=87
4A	.	1r	.	4.c	-a	4a	-a
*col	*	*	*	*	*	*	*Xedit
4.F	.	.	.	.	.	4.cc	tu-
.	.	.	.	8B	.	.	.
.	.	.	.	4A	.	.	.
8E	.	.	.	.	.	8b	.
*Xcol	*	*	*	*	*Xedit	*	*
4F	.	.	.	[4d	tu-	[4a	.
=88	=88	=88	=88	=88	=88	=88	=88
4D	.	1r	.	4d]	.	4a]	.
4G	.	.	.	4B	.	2g	.
2D	.	.	.	2A	.	.	.
.	.	.	.	.	.	4f#i	.
=89	=89	=89	=89	=89	=89	=89	=89
1GGl	-a.	1r	.	1Gl	-a.	1gl	-a.
!!LO:LB:g=original
=90||	=90||	=90||	=90||	=90||	=90||	=90||	=90||
!!LO:TX:a:t=C. (T)
!!LO:TX:a:t=O| (S, A, B)
*M3/2	*	*M3/2	*	*M3/2	*	*M3/2	*
*met(O|)	*	*met(C.)	*	*met(O|)	*	*met(O|)	*
*	*	*	*	*	*	*lig	*
2.G	O-	1.G	O-	2d	O-	2.g	O-
.	.	.	.	4B	.	.	.
4F	.	.	.	4G	.	2b	.
*	*	*	*	*	*	*Xlig	*
2E	.	.	.	4B	.	.	.
.	.	.	.	4c	.	8aL	.
.	.	.	.	.	.	8gJ	.
=91	=91	=91	=91	=91	=91	=91	=91
4D	-san-	1.A	-san-	4.d	-san-	4f	-san-
2F	.	.	.	.	.	2a	.
.	.	.	.	8c	.	.	.
.	.	.	.	8AL	.	.	.
.	.	.	.	8B	.	.	.
4E	.	.	.	8c	.	4g	.
.	.	.	.	16BL	.	.	.
.	.	.	.	16cJJ	.	.	.
*	*	*	*	*lig	*	*	*
2D	.	.	.	[2d	.	4.f#i	.
.	.	.	.	.	.	8e	.
=92	=92	=92	=92	=92	=92	=92	=92
*	*	*lig	*	*	*	*	*edit
1GG	-na,	1.G	-na	4d]	.	4g	-na,
.	.	.	.	2B	.	4.dd	o-
*	*	*	*	*Xlig	*	*	*
.	.	.	.	.	.	8cc	.
.	.	.	.	4G	.	2b	.
4r	.	.	.	2d	-na,	.	.
*	*edit	*	*	*	*	*	*
4GG	o-	.	.	.	.	8aL	.
.	.	.	.	.	.	8gJ	.
=93	=93	=93	=93	=93	=93	=93	=93
4D	-san-	1.A	.	2r	.	4.f	-san-
4E	.	.	.	.	.	.	.
.	.	.	.	.	.	8g	.
*	*	*Xlig	*	*	*edit	*	*
1F	-na,	.	.	4.d	o-	8aL	.
.	.	.	.	.	.	8bJ	.
.	.	.	.	.	.	2cc	.
.	.	.	.	8e	.	.	.
.	.	.	.	2f	.	.	.
.	.	.	.	.	.	8bL	.
.	.	.	.	.	.	8aJ	.
!!LO:LB:g=original
=94	=94	=94	=94	=94	=94	=94	=94
*	*	*lig	*	*	*	*	*
4r	.	1.G	.	4g	.	2b	.
4.G	o-	.	.	4.d	-san-	.	.
*	*	*	*	*	*	*	*Xedit
.	.	.	.	.	.	2g	-na,
8A	.	.	.	8cL	.	.	.
2B	.	.	.	8B	.	.	.
.	.	.	.	8AJ	.	.	.
.	.	.	.	2G	-na	4r	.
*	*	*	*	*	*	*	*edit
8AL	.	.	.	.	.	4dd	o-
8GJ	.	.	.	.	.	.	.
=95	=95	=95	=95	=95	=95	=95	=95
*col	*	*	*	*	*	*	*
4.A	-san-	1.c	.	2r	.	4cc	.
.	.	.	.	.	.	2a	-san-
8G	.	.	.	.	.	.	.
*Xcol	*	*Xlig	*	*col	*Xedit	*	*
4F	.	.	.	4.A	in	.	.
8EL	.	.	.	.	.	8gL	.
8DJ	.	.	.	8B	.	8fJ	.
*	*	*	*	*Xcol	*	*	*
4C	-na	.	.	4c	.	2e	-na
4E	.	.	.	[4G	ex-	.	.
=96	=96	=96	=96	=96	=96	=96	=96
*	*Xedit	*	*edit	*	*	*	*
2D	in	2A	in	4G]	.	4r	.
*lig	*	*	*	*	*	*	*Xedit
.	.	.	.	4F	.	4f	in
2C	ex-	1c	ex-	4G	.	4e	.
.	.	.	.	4E	.	4.a	ex-
2AA	.	.	.	4F	.	.	.
*Xlig	*	*	*	*	*	*	*
.	.	.	.	.	.	8b	.
.	.	.	.	[4A	-cel-	[4cc	-cel-
=97	=97	=97	=97	=97	=97	=97	=97
*col	*	*	*	*	*	*	*
4.AA	-cel-	2c	-cel-	4A]	.	4cc]	.
.	.	.	.	8GL	.	8bL	.
8BB	.	.	.	8FJ	.	8aJ	.
*Xcol	*edit	*	*	*	*edit	*	*edit
2C	-sis,	4c	-sis,	2E	-sis,	2g	-sis,
*	*	*	*Xedit	*	*	*	*
.	.	2.c	in	.	.	.	.
4.C	in	.	.	4.E	in	4r	.
.	.	.	.	.	.	4cc	in
8D	.	.	.	8F	.	.	.
!!LO:PB:g=original
=98	=98	=98	=98	=98	=98	=98	=98
4.E	ex-	1.G	ex-	4.G	ex-	4b	.
.	.	.	.	.	.	2g	ex-
8F	.	.	.	8A	.	.	.
8GL	.	.	.	4B	-cel-	.	.
8F	.	.	.	.	.	.	.
8E	.	.	.	4G	.	2b	.
8DJ	.	.	.	.	.	.	.
2E	-cel-	.	.	2B	-sis,	.	.
.	.	.	.	.	.	8aL	.
.	.	.	.	.	.	8gJ	.
=99	=99	=99	=99	=99	=99	=99	=99
2D	-sis,	1d	-cel-	4r	.	4.f	-cel-
.	.	.	.	2A	in	.	.
.	.	.	.	.	.	8g	.
4r	.	.	.	.	.	4a	.
*col	*	*	*	*	*	*	*
4.G	in	.	.	4G	.	4.b	.
.	.	4.B	.	2d	ex-	.	.
8A	.	.	.	.	.	8a	.
*Xcol	*	*	*	*	*	*	*
[4B	ex-	.	.	.	.	[4g	.
.	.	8c	.	.	.	.	.
=100	=100	=100	=100	=100	=100	=100	=100
*	*	*	*	*col	*	*	*
4B]	.	4.d	.	4.d	-cel-	8g]L	.
.	.	.	.	.	.	8fJ	.
8AL	.	.	.	.	.	4.a	.
8GJ	.	8B	.	8e	.	.	.
*	*	*	*	*Xcol	*	*	*
4F	.	4.c	.	4f	.	.	.
.	.	.	.	.	.	8g	.
4G	.	.	.	4e	.	2g	.
.	.	8B	.	.	.	.	.
2D	-cel-	2A	.	2d	.	.	.
*	*Xedit	*	*	*	*	*	*
.	.	.	.	.	.	4f#i	.
=101	=101	=101	=101	=101	=101	=101	=101
*	*	*	*	*	*Xedit	*	*Xedit
1.GGl	-sis.	1.Gl	-sis.	1.dl	-sis.	1.gl	-sis.
!!LO:LB:g=original
=102||	=102||	=102||	=102||	=102||	=102||	=102||	=102||
*M2/2	*	*M2/2	*	*M2/2	*	*M2/2	*
*met(C|)	*	*met(C|)	*	*met(C|)	*	*met(C|)	*
1r	.	1r	.	4.D	Be-	1r	.
.	.	.	.	8E	.	.	.
.	.	.	.	4F	.	.	.
.	.	.	.	[4G	.	.	.
=103	=103	=103	=103	=103	=103	=103	=103
1r	.	1r	.	4G]	.	2r	.
.	.	.	.	4F#i	.	.	.
.	.	.	.	4G	.	4.d	Be-
.	.	.	.	4B	-ne-	.	.
.	.	.	.	.	.	8e	.
=104	=104	=104	=104	=104	=104	=104	=104
1r	.	1r	.	4A	.	4f	.
.	.	.	.	4G	.	2g	.
.	.	.	.	2A	-di-	.	.
.	.	.	.	.	.	4f#i	.
=105	=105	=105	=105	=105	=105	=105	=105
*	*	*	*	*	*edit	*	*
1r	.	1r	.	2G	-ctus,	4g	.
.	.	.	.	.	.	4b	-ne-
.	.	.	.	4A	be-	4a	.
.	.	.	.	[4c	.	4g	.
=106	=106	=106	=106	=106	=106	=106	=106
1r	.	1r	.	4c]	.	2a	-di-
.	.	.	.	8BL	.	.	.
.	.	.	.	8AJ	.	.	.
*	*	*	*	*	*	*	*edit
.	.	.	.	2B	-ne-	2g	-ctus,
=107	=107	=107	=107	=107	=107	=107	=107
1r	.	1r	.	2.A	-di-	4a	be-
.	.	.	.	.	.	2cc	.
.	.	.	.	8GL	.	8bL	.
.	.	.	.	8FJ	.	8aJ	.
!!LO:LB:g=original
=108	=108	=108	=108	=108	=108	=108	=108
1r	.	1r	.	2G	.	2b	-ne-
.	.	.	.	4F	.	[2a	-di-
.	.	.	.	4D	.	.	.
=109	=109	=109	=109	=109	=109	=109	=109
*	*	*	*	*lig	*	*	*
1r	.	1r	.	2F	.	4a]	.
.	.	.	.	.	.	8gL	.
.	.	.	.	.	.	8fJ	.
.	.	.	.	2E	.	2g	.
*	*	*	*	*Xlig	*	*	*
=110	=110	=110	=110	=110	=110	=110	=110
*	*	*	*	*	*Xedit	*	*
1r	.	1r	.	2D	-ctus,	4f	.
.	.	.	.	.	.	4d	.
*	*	*	*	*	*	*lig	*
.	.	.	.	4r	.	2f	.
*	*	*	*	*	*edit	*	*
.	.	.	.	[4d	be-	.	.
=111	=111	=111	=111	=111	=111	=111	=111
1r	.	1r	.	4d]	.	2e	.
.	.	.	.	4c	-ne-	.	.
*	*	*	*	*	*	*Xlig	*Xedit
.	.	.	.	4B	.	2d	-ctus,
.	.	.	.	[4G	-di-	.	.
=112	=112	=112	=112	=112	=112	=112	=112
1r	.	1r	.	4G]	.	4r	.
*	*	*	*	*	*	*	*edit
.	.	.	.	4B	.	2dd	be-
.	.	.	.	2A	-ctus	.	.
.	.	.	.	.	.	4cc	-ne-
=113	=113	=113	=113	=113	=113	=113	=113
1r	.	1r	.	4G	qui	4b	.
.	.	.	.	4B	ve-	4g	-di-
.	.	.	.	4c	.	4a	.
.	.	.	.	[4d	.	[4b	.
!!LO:LB:g=original
=114	=114	=114	=114	=114	=114	=114	=114
1r	.	1r	.	4d]	.	4b]	.
.	.	.	.	8cL	.	4a	.
.	.	.	.	8BJ	.	.	.
.	.	.	.	2A	-nit,	2f	-ctus
=115	=115	=115	=115	=115	=115	=115	=115
*	*	*	*	*	*	*	*Xedit
2G	Qui	1r	.	1r	.	4g	qui
.	.	.	.	.	.	4b	ve-
4A	.	.	.	.	.	4cc	.
[4B	ve-	.	.	.	.	[4dd	.
=116	=116	=116	=116	=116	=116	=116	=116
4B]	.	1r	.	1r	.	4dd]	.
8AL	.	.	.	.	.	8ccL	.
8GJ	.	.	.	.	.	8bJ	.
2F	.	.	.	.	.	2a	-nit,
=117	=117	=117	=117	=117	=117	=117	=117
*	*	*	*	*	*Xedit	*	*
4.G	.	1r	.	4G	qui	1r	.
*	*	*	*	*	*edit	*	*
.	.	.	.	4B	ve-	.	.
8F	.	.	.	.	.	.	.
4E	.	.	.	4c	.	.	.
[4D	.	.	.	[4d	.	.	.
=118	=118	=118	=118	=118	=118	=118	=118
4D]	.	1r	.	4d]	.	1r	.
2G	.	.	.	8cL	.	.	.
.	.	.	.	8BJ	.	.	.
.	.	.	.	2A	.	.	.
4F#i	.	.	.	.	.	.	.
=119	=119	=119	=119	=119	=119	=119	=119
*	*edit	*	*	*	*	*	*edit
4G	-nit,	1r	.	2G	-nit,	2g	qui
4E	qui	.	.	.	.	.	.
4F	.	.	.	2r	.	4a	.
[4D	ve-	.	.	.	.	[4b	ve-
!!LO:LB:g=original
=120	=120	=120	=120	=120	=120	=120	=120
4D]	.	1r	.	4r	.	4b]	.
8CL	.	.	.	2d	qui	8aL	.
8BBJ	.	.	.	.	.	8gJ	.
2AA	.	.	.	.	.	2f#j	.
.	.	.	.	4c	.	.	.
=121	=121	=121	=121	=121	=121	=121	=121
*	*	*	*	*	*Xedit	*	*
2GG	-nit	1r	.	4B	ve-	4g	.
.	.	.	.	8AL	.	4.dd	.
.	.	.	.	8GJ	.	.	.
2D	.	.	.	2F#j	.	.	.
.	.	.	.	.	.	8cc	.
.	.	.	.	.	.	4a	.
=122	=122	=122	=122	=122	=122	=122	=122
4r	.	1r	.	4G	.	4b	-nit
4G	in	.	.	4B	.	4g	.
*	*	*	*	*	*	*	*Xedit
4A	.	.	.	2A	-nit	4.f	in
[4F	no-	.	.	.	.	.	.
.	.	.	.	.	.	8g	.
=123	=123	=123	=123	=123	=123	=123	=123
8F]L	.	1r	.	4r	.	2.a	no-
8EJ	.	.	.	.	.	.	.
2D	.	.	.	4.A	in	.	.
.	.	.	.	8B	.	.	.
*	*	*	*	*	*edit	*	*
4C	.	.	.	[4c	no-	4a	-mi-
=124	=124	=124	=124	=124	=124	=124	=124
4.F	-mi-	1r	.	8c]L	.	2a	-ne,
.	.	.	.	8B	.	.	.
.	.	.	.	8A	.	.	.
8G	.	.	.	8GJ	.	.	.
4A	.	.	.	4.F	-mi-	4r	.
*	*	*	*	*	*	*col	*edit
[4D	-ne,	.	.	.	.	[4a	in
.	.	.	.	8E	.	.	.
=125	=125	=125	=125	=125	=125	=125	=125
4D]	.	1r	.	2F	-ne,	8a]L	.
.	.	.	.	.	.	8bJ	.
*	*	*	*	*	*	*Xcol	*
8CL	.	.	.	.	.	4.cc	no-
8BBJ	.	.	.	.	.	.	.
2AA	.	.	.	4r	.	.	.
.	.	.	.	.	.	8bL	.
*	*	*	*	*	*Xedit	*	*
.	.	.	.	[4A	no-	8a	.
.	.	.	.	.	.	8gJ	.
!!LO:PB:g=original
=126	=126	=126	=126	=126	=126	=126	=126
4r	.	1r	.	4A]	.	4.f	-mi-
4.D	no-	.	.	4A	-mi-	.	.
.	.	.	.	.	.	8e	.
.	.	.	.	2A	-ne,	2f	-ne,
8CL	.	.	.	.	.	.	.
8BB	.	.	.	.	.	.	.
8AAJ	.	.	.	.	.	.	.
=127	=127	=127	=127	=127	=127	=127	=127
*	*	*	*	*	*edit	*	*
2GG	-mi-	1r	.	4B	qui	4g	qui
.	.	.	.	4G	ve-	4b	ve-
4C	.	.	.	4A	.	4cc	.
*	*	*	*	*lig	*	*	*
4BB	.	.	.	[4G	.	[4dd	.
=128	=128	=128	=128	=128	=128	=128	=128
2GG	-ne,	1r	.	4G]	.	4dd]	.
.	.	.	.	2g	.	8ccL	.
*	*	*	*	*Xlig	*	*	*
.	.	.	.	.	.	8bJ	.
4r	.	.	.	.	.	2a	.
4D	qui	.	.	4f#i	.	.	.
=129	=129	=129	=129	=129	=129	=129	=129
4E	ve-	1r	.	4.g	.	2g	-nit
4G	.	.	.	.	.	.	.
.	.	.	.	8f	.	.	.
4F	.	.	.	8eL	.	2r	.
.	.	.	.	8dJ	.	.	.
[4A	.	.	.	[4f	.	.	.
=130	=130	=130	=130	=130	=130	=130	=130
4A]	.	1r	.	8f]L	.	1r	.
.	.	.	.	8eJ	.	.	.
8GL	.	.	.	2d	.	.	.
8FJ	.	.	.	.	.	.	.
2E	.	.	.	.	.	.	.
.	.	.	.	4c#i	.	.	.
=131	=131	=131	=131	=131	=131	=131	=131
*	*Xedit	*	*	*	*	*	*
2D	-nit	1r	.	1d	-nit	1r	.
4r	.	.	.	.	.	.	.
[4GG	in	.	.	.	.	.	.
!!LO:LB:g=original
=132	=132	=132	=132	=132	=132	=132	=132
2GG]	.	1r	.	2r	.	1r	.
2C	no-	.	.	[2G	in	.	.
=133	=133	=133	=133	=133	=133	=133	=133
4BB	.	1r	.	4G]	.	1r	.
2AA	.	.	.	2c	no-	.	.
[4D	-mi-	.	.	4B	.	.	.
=134	=134	=134	=134	=134	=134	=134	=134
2D]	.	1r	.	2A	.	1r	.
2GG	-ne	.	.	[2d	-mi-	.	.
=135	=135	=135	=135	=135	=135	=135	=135
4r	.	1r	.	2d]	.	1r	.
2G	Do-	.	.	.	.	.	.
.	.	.	.	2G	-ne,	.	.
8FL	.	.	.	.	.	.	.
8EJ	.	.	.	.	.	.	.
=136	=136	=136	=136	=136	=136	=136	=136
2F	.	1r	.	4r	.	1r	.
*	*	*	*	*	*Xedit	*	*
.	.	.	.	2d	Do-	.	.
2G	.	.	.	.	.	.	.
.	.	.	.	8cL	.	.	.
.	.	.	.	8BJ	.	.	.
=137	=137	=137	=137	=137	=137	=137	=137
2A	-mi-	1r	.	2c	.	1r	.
*	*edit	*	*	*	*	*	*
4D	-ni,	.	.	2d	.	.	.
*col	*	*	*	*	*	*	*
[4G	Do-	.	.	.	.	.	.
=138	=138	=138	=138	=138	=138	=138	=138
8G]L	.	1r	.	2e	-mi-	1r	.
8FJ	.	.	.	.	.	.	.
*Xcol	*	*	*	*	*	*	*
4G	.	.	.	.	.	.	.
*	*	*	*	*	*edit	*	*
4A	.	.	.	4A	-ni,	.	.
[4F	.	.	.	[4d	Do-	.	.
!!LO:LB:g=original
=139	=139	=139	=139	=139	=139	=139	=139
8F]L	.	1r	.	8d]L	.	1r	.
8EJ	.	.	.	8cJ	.	.	.
4D	.	.	.	4d	.	.	.
*lig	*	*	*	*	*	*	*
2C	.	.	.	4e	.	.	.
.	.	.	.	[4c	.	.	.
=140	=140	=140	=140	=140	=140	=140	=140
2F	.	1r	.	8c]L	.	1r	.
*Xlig	*	*	*	*	*	*	*
.	.	.	.	8BJ	.	.	.
.	.	.	.	4A	.	.	.
2E	.	.	.	4G	.	.	.
.	.	.	.	4c	.	.	.
=141	=141	=141	=141	=141	=141	=141	=141
4D	.	1r	.	4d	.	1r	.
2G	-mi-	.	.	4B	.	.	.
.	.	.	.	2A	-mi-	.	.
4F#i	.	.	.	.	.	.	.
=142	=142	=142	=142	=142	=142	=142	=142
4G	-ni,	1r	.	4G	-ni,	2r	.
4C	in	.	.	4c	in	.	.
4D	no-	.	.	4B	no-	4r	.
4BB	.	.	.	4G	.	4g	in
=143	=143	=143	=143	=143	=143	=143	=143
2AA	-mi-	1r	.	2A	-mi-	2cc	no-
2GG	-ne,	.	.	4D	-ne,	4dd	.
.	.	.	.	4G	Do-	4b	.
=144	=144	=144	=144	=144	=144	=144	=144
4r	.	1r	.	8AL	.	2a	-mi-
.	.	.	.	8B	.	.	.
4F	Do-	.	.	8c	.	.	.
.	.	.	.	8dJ	.	.	.
4G	.	.	.	4B	.	4g	-ne
*	*	*	*	*	*	*	*Xedit
4F	.	.	.	[4A	.	4cc	Do-
!!LO:LB:g=original
=145	=145	=145	=145	=145	=145	=145	=145
4G	.	1r	.	4A]	.	4b	.
4E	-mi-	.	.	2G	-mi-	4g	.
2D	-ni,	.	.	.	.	2a	-mi-
.	.	.	.	4F#i	.	.	.
=146	=146	=146	=146	=146	=146	=146	=146
*	*	*	*	*	*	*	*edit
4r	.	1r	.	2G	-ni,	4d	-ni,
4G	Do-	.	.	.	.	4g	Do-
2F	.	.	.	4c	Do-	8aL	.
.	.	.	.	.	.	8b	.
.	.	.	.	4A	.	8cc	.
.	.	.	.	.	.	8ddJ	.
=147	=147	=147	=147	=147	=147	=147	=147
4G	.	1r	.	4G	.	4b	.
*	*	*	*	*	*	*col	*
4F	.	.	.	4A	.	4.a	.
4G	.	.	.	4B	.	.	.
.	.	.	.	.	.	8g	.
*	*	*	*	*	*	*Xcol	*
4E	-mi-	.	.	4c	.	[4g	.
=148	=148	=148	=148	=148	=148	=148	=148
2D	-ni,	1r	.	2A	.	4g]	.
.	.	.	.	.	.	4f#i	.
4r	.	.	.	4G	.	4b	.
4G	Do-	.	.	[4d	.	8bL	.
.	.	.	.	.	.	[8aJ	.
=149	=149	=149	=149	=149	=149	=149	=149
4F	.	1r	.	4d]	.	8a]L	.
.	.	.	.	.	.	8gJ	.
4G	.	.	.	8cL	.	2g	-mi-
.	.	.	.	8BJ	.	.	.
2D	-mi-	.	.	2A	-mi-	.	.
.	.	.	.	.	.	4f#i	.
=150	=150	=150	=150	=150	=150	=150	=150
*	*Xedit	*	*	*	*Xedit	*	*Xedit
1GGl	-ni.	1r	.	1Gl	-ni.	1gl	-ni.
!!LO:LB:g=original
=151||	=151||	=151||	=151||	=151||	=151||	=151||	=151||
!!LO:TX:a:t=C|3
*M3/2	*	*M3/2	*	*M3/2	*	*M3/2	*
*met(C|3)	*	*met(C|3)	*	*met(C|3)	*	*met(C|3)	*
*	*	*	*	*	*	*col	*
*	*	*lig	*	*	*	*	*
*col	*	*col	*	*	*	*	*
[1.GG	O-	[1.G	O-	[1.d	O-	[1.g	O-
=152	=152	=152	=152	=152	=152	=152	=152
2GG]	.	2G]	.	1.d]	.	2g]	.
1D	.	1A	.	.	.	1f	.
*Xcol	*	*Xlig	*	*	*	*Xcol	*
=153	=153	=153	=153	=153	=153	=153	=153
*	*	*lig	*	*lig	*	*lig	*
2.E	-san-	[1.G	-san-	2B	-san-	2g	-san-
.	.	.	.	2G	.	2.b	.
*	*	*	*	*Xlig	*	*Xlig	*
4F	.	.	.	.	.	.	.
2G	.	.	.	2B	.	.	.
.	.	.	.	.	.	4a	.
=154	=154	=154	=154	=154	=154	=154	=154
2E	.	2G]	.	2c	.	1g	.
1D	.	1A	.	1d	.	.	.
.	.	.	.	.	.	2f#i	.
=155	=155	=155	=155	=155	=155	=155	=155
*	*	*Xlig	*	*	*	*lig	*edit
*lig	*	*lig	*	*	*	*	*
2E	-na,	1G	-na,	2B	-na,	1.g	-na,
1C	.	.	.	1c	.	.	.
.	.	[2c	.	.	.	.	.
!!LO:PB:g=original
=156	=156	=156	=156	=156	=156	=156	=156
*Xlig	*edit	*	*	*	*edit	*	*
*col	*	*	*	*	*	*	*
*lig	*	*	*	*	*	*	*
1F	o-	1.c]	.	2.A	o-	1a	.
*	*	*Xlig	*	*	*	*Xlig	*
.	.	.	.	4B	.	.	.
[2C	.	.	.	4c	.	2g	.
.	.	.	.	4d	.	.	.
=157	=157	=157	=157	=157	=157	=157	=157
*	*	*lig	*edit	*	*	*	*
2C]	.	1c	o-	2e	.	2e	o-
1F	.	.	.	2.f	.	2.a	.
*Xcol	*	*	*	*	*	*	*
*Xlig	*	*	*	*	*	*	*
.	.	[2A	.	.	.	.	.
.	.	.	.	4e	.	4b	.
=158	=158	=158	=158	=158	=158	=158	=158
1.F	-san-	1.A]	.	1c	-san-	2.cc	.
*	*	*Xlig	*	*	*	*	*
.	.	.	.	.	.	4b	.
.	.	.	.	2d	.	2a	.
=159	=159	=159	=159	=159	=159	=159	=159
*	*	*	*	*	*	*lig	*
*	*	*lig	*	*	*	*col	*
2E	.	1c	-san-	1e	.	1g	-san-
2C	.	.	.	.	.	.	.
2BB	.	[2G	.	2d	.	[2dd	.
=160	=160	=160	=160	=160	=160	=160	=160
*	*	*	*	*lig	*	*	*
1GG	.	2G]	.	2B	-na,	2dd]	.
*	*	*Xlig	*	*	*	*Xlig	*
.	.	1d	.	2G	.	2.b	.
*	*	*	*	*Xlig	*	*	*
2D	.	.	.	2r	.	.	.
.	.	.	.	.	.	4a	.
*	*	*	*	*	*	*Xcol	*
!!LO:LB:g=original
=161	=161	=161	=161	=161	=161	=161	=161
*lig	*	*lig	*	*	*	*lig	*
2E	.	1B	.	2.G	o-	2g	.
2.G	.	.	.	.	.	2d	.
*Xlig	*	*	*	*	*	*Xlig	*
.	.	.	.	4A	.	.	.
.	.	[2G	.	2B	.	2e	.
4F	.	.	.	.	.	.	.
=162	=162	=162	=162	=162	=162	=162	=162
*	*	*	*	*col	*	*	*
2E	.	2G]	.	2c	-san-	1g	.
1D	.	1A	.	1d	.	.	.
*	*	*Xlig	*	*	*	*	*
.	.	.	.	.	.	2f#i	.
=163	=163	=163	=163	=163	=163	=163	=163
*	*	*	*	*	*	*	*Xedit
2.GG	-na	[1.G	-na	1d	-na	1g	-na
4AA	.	.	.	.	.	.	.
2BB	.	.	.	2B	.	2r	.
=164	=164	=164	=164	=164	=164	=164	=164
*	*Xedit	*	*	*	*Xedit	*	*
2.C	in	2G]	.	2G	in	1g	in
*	*	*Xcol	*	*	*	*	*
.	.	2r	.	2.c	ex-	.	.
4D	.	.	.	.	.	.	.
2E	.	2r	.	.	.	2e	.
.	.	.	.	4B	.	.	.
*	*	*	*	*Xcol	*	*	*
=165	=165	=165	=165	=165	=165	=165	=165
*	*	*	*	*	*	*lig	*edit
2.F	ex-	1.r	.	4A	.	2c	ex-
.	.	.	.	4G	.	.	.
.	.	.	.	2F	.	2.f	.
*	*	*	*	*	*	*Xlig	*
4E	.	.	.	.	.	.	.
4D	.	.	.	[2B-	.	.	.
4C	.	.	.	.	.	4e	.
!!LO:LB:g=original
=166	=166	=166	=166	=166	=166	=166	=166
*lig	*	*	*	*	*	*	*
2BB-X	.	1.r	.	4B-]	.	4d	.
.	.	.	.	4A	.	4c	.
2G	.	.	.	2G	.	2B	-cel-
*Xlig	*	*	*	*	*	*	*
2D	.	.	.	2F	.	2A	.
=167	=167	=167	=167	=167	=167	=167	=167
2E	-cel-	1.r	.	1G	-cel-	2G	.
1D	.	.	.	.	.	1A	-sis,
.	.	.	.	2F#i	.	.	.
=168	=168	=168	=168	=168	=168	=168	=168
*lig	*edit	*	*	*	*edit	*	*
2GG	-sis,	1.r	.	2G	-sis,	2r	.
*	*	*	*	*	*	*lig	*
*	*	*	*	*	*	*col	*
2C	.	.	.	2A	.	2G	o
*Xlig	*	*	*	*	*	*	*
2BB	.	.	.	2G	.	2g	.
*	*	*	*	*lig	*	*Xlig	*
=169	=169	=169	=169	=169	=169	=169	=169
2C	o-	1.r	.	1c	o-	2e	san-
1D	.	.	.	.	.	1f	.
*	*	*	*	*	*	*Xcol	*
.	.	.	.	2B	.	.	.
=170	=170	=170	=170	=170	=170	=170	=170
*	*	*col	*Xedit	*col	*	*	*
4C	-san-	[1.G	in	1c	-san-	1e	-na
*	*	*	*	*Xlig	*	*	*
4D	.	.	.	.	.	.	.
4E	.	.	.	.	.	.	.
4F	.	.	.	.	.	.	.
4G	.	.	.	[2B	.	2r	.
4F	.	.	.	.	.	.	.
!!LO:LB:g=original
=171	=171	=171	=171	=171	=171	=171	=171
4E	.	2G]	.	2B]	.	1g	in
4D	.	.	.	.	.	.	.
1E	-na	1G	ex-	1c	.	.	.
*	*	*	*	*Xcol	*	*	*
.	.	.	.	.	.	2e	.
=172	=172	=172	=172	=172	=172	=172	=172
*lig	*	*lig	*edit	*	*	*	*Xedit
2D	in	1d	-cel-	4.d	-na	2f	ex-
.	.	.	.	8c	.	.	.
2F	.	.	.	2A	.	2a	.
*Xlig	*	*	*	*	*	*	*
2E	ex-	[2e	.	2G	in	2g	.
=173	=173	=173	=173	=173	=173	=173	=173
*lig	*	*	*	*lig	*	*	*
2C	-cel-	2e]	.	1.g	ex-	1cc	-cel-
1G	.	1d	.	.	.	.	.
*Xlig	*	*Xlig	*	*	*	*	*
.	.	.	.	.	.	2b	.
=174	=174	=174	=174	=174	=174	=174	=174
1.C	sis,	[1.c	-sis,	1.e	.	2cc	.
*	*	*	*	*Xlig	*	*	*
.	.	.	.	.	.	4b	.
.	.	.	.	.	.	2a	.
.	.	.	.	.	.	8gL	.
.	.	.	.	.	.	8fJ	.
=175	=175	=175	=175	=175	=175	=175	=175
*	*	*	*	*lig	*	*	*edit
2C	in	2c]	.	2g	-cel-	2e	-sis,
1F	.	1c	in	2.f	.	2.a	in
*	*	*	*	*Xlig	*	*	*
.	.	.	.	4e	.	4b	.
!!LO:PB:g=original
=176	=176	=176	=176	=176	=176	=176	=176
*	*	*lig	*	*	*	*	*
2F	ex-	1A	ex-	1.c	-sis,	2.cc	ex-
2.F	-cel-	.	.	.	.	.	.
.	.	.	.	.	.	4b	.
.	.	[2c	.	.	.	4a	.
4G	.	.	.	.	.	4b	.
=177	=177	=177	=177	=177	=177	=177	=177
2A	.	2c]	.	1.r	.	2cc	.
1B	.	1G	.	.	.	2.dd	-cel-
*	*	*Xlig	*	*	*	*	*
.	.	.	.	.	.	4cc	.
=178	=178	=178	=178	=178	=178	=178	=178
*col	*	*lig	*	*	*	*	*
1G	.	1d	-cel-	1g	in	4b	.
.	.	.	.	.	.	4a	.
.	.	.	.	.	.	2.b	.
2A	.	[2c	.	2e	ex-	.	.
*Xcol	*	*	*	*	*	*	*
.	.	.	.	.	.	4a	.
=179	=179	=179	=179	=179	=179	=179	=179
*lig	*	*	*	*	*	*	*
2F	.	2c]	.	2f	.	1a	.
1G	.	1B-i	.	1d	-cel-	.	.
*Xlig	*	*Xcol	*	*	*	*	*
*	*	*Xlig	*	*	*	*	*
.	.	.	.	.	.	2g	.
=180	=180	=180	=180	=180	=180	=180	=180
1.D	-sis,	1A	-sis,	1d	-sis,	1a	-sis,
.	.	2r	.	2f	in	2a	in
!!LO:LB:g=original
=181	=181	=181	=181	=181	=181	=181	=181
*	*	*col	*	*col	*	*col	*
*	*	*lig	*	*	*	*	*
1.r	.	1A	ex-	2c	ex-	2cc	ex-
.	.	.	.	2f	-cel-	2cc	-cel-
.	.	[2c	.	[2e	-sis	2a	-sis,
=182	=182	=182	=182	=182	=182	=182	=182
2r	.	2c]	.	2e]	.	2a	in
1D	in	1A	.	1d	in	2.dd	ex-
.	.	.	.	.	.	4cc	.
=183	=183	=183	=183	=183	=183	=183	=183
*col	*	*Xlig	*Xedit	*Xcol	*	*Xcol	*
*lig	*	*lig	*	*	*	*	*
2D	ex-	1d	-cel-	2.f	ex-	2b	.
2F	.	.	.	.	.	2.a	.
*Xlig	*	*	*	*	*	*	*
.	.	.	.	4e	.	.	.
*lig	*	*	*	*	*	*	*
[2G	-cel-	[2B	.	2d	.	.	.
.	.	.	.	.	.	4g	.
=184	=184	=184	=184	=184	=184	=184	=184
2G]	.	2B]	.	1.d	-cel-	1g	-cel-
1D	.	1A	.	.	.	.	.
*Xlig	*	*Xcol	*	*	*	*	*
*Xcol	*	*Xlig	*	*	*	*	*
.	.	.	.	.	.	2f#i	.
=185	=185	=185	=185	=185	=185	=185	=185
1.GGl	-sis.	1.Gl	-sis.	1.dl	-sis.	1.gl	-sis.
==	==	==	==	==	==	==	==
*-	*-	*-	*-	*-	*-	*-	*-
!!!system-decoration: [*]
!!!RDF**kern: j = editorial accidental, optional, paren up
!!!RDF**kern: i = editorial accidental
!!!RDF**kern: l = terminal breve
!!!PTL: Gaspar van Weerbeke: Collected Works. I. Masses, Part 1
!!!ISBN: 978-1-59551-515-5
!!!PPR: American Institute of Musicology
!!!PC#: Corpus Mensurabilis Musicae 106/I.1
!!!PDT: 2016
!!!PED: Pavanello, Agnese
!!!YEC: Copyright 2014, Pavanello, Agnese
!!!YEM: CC-BY-NC 4.0 (https://creativecommons.org/licenses/by-nc/4.0/legalcode)
!!!EED: Mair-Gruber, Roland
!!!EEV: 2021/10/30
!!!title: @{OPR} &mdash; @{OTL}
